src/gui/emoticons/disappointed.svg

<svg xmlns="http://www.w3.org/2000/svg" xmlns:xlink="http://www.w3.org/1999/xlink" width="16pt" height="16pt" version="1.1" viewBox="0 0 16 16"><defs><linearGradient id="linear0" x1="64" x2="64" y1="19.717" y2="107.7" gradientTransform="matrix(0.125,0,0,0.125,0,0)" gradientUnits="userSpaceOnUse"><stop offset=".566" style="stop-color:#f6a323;stop-opacity:1"/><stop offset=".917" style="stop-color:#fee133;stop-opacity:1"/></linearGradient></defs><g id="surface1"><path style="stroke:none;fill-rule:nonzero;fill:url(#linear0)" d="M 8 14.984375 C 4.507812 14.984375 0.75 12.800781 0.75 8 C 0.75 3.199219 4.507812 1.015625 8 1.015625 C 9.933594 1.015625 11.726562 1.652344 13.046875 2.816406 C 14.488281 4.089844 15.25 5.882812 15.25 8 C 15.25 10.109375 14.488281 11.894531 13.046875 13.171875 C 11.722656 14.34375 9.929688 14.984375 8 14.984375 Z M 8 14.984375"/><path style="stroke:none;fill-rule:nonzero;fill:#eb8f00;fill-opacity:1" d="M 8 1.265625 C 9.875 1.265625 11.609375 1.882812 12.878906 3.003906 C 14.265625 4.230469 15 5.957031 15 8 C 15 10.035156 14.265625 11.757812 12.878906 12.984375 C 11.601562 14.113281 9.871094 14.734375 8 14.734375 C 6.121094 14.734375 4.386719 14.121094 3.121094 13.007812 C 1.734375 11.789062 1 10.058594 1 8 C 1 5.933594 1.734375 4.199219 3.121094 2.980469 C 4.382812 1.875 6.117188 1.265625 8 1.265625 M 8 0.765625 C 4.105469 0.765625 0.5 3.265625 0.5 8 C 0.5 12.710938 4.105469 15.234375 8 15.234375 C 11.894531 15.234375 15.5 12.644531 15.5 8 C 15.5 3.328125 11.894531 0.765625 8 0.765625 Z M 8 0.765625"/><path style="stroke:none;fill-rule:nonzero;fill:#242424;fill-opacity:1" d="M 8 10.894531 C 9.351562 10.894531 10.230469 11.882812 10.457031 12.339844 C 10.542969 12.515625 10.546875 12.664062 10.472656 12.730469 C 10.417969 12.78125 10.324219 12.78125 10.214844 12.734375 C 10.175781 12.714844 10.140625 12.695312 10.101562 12.667969 C 9.507812 12.25 8.761719 11.992188 7.996094 11.992188 C 7.234375 11.992188 6.492188 12.25 5.898438 12.667969 C 5.863281 12.695312 5.824219 12.714844 5.789062 12.734375 C 5.679688 12.78125 5.582031 12.785156 5.527344 12.730469 C 5.453125 12.664062 5.457031 12.515625 5.546875 12.339844 C 5.769531 11.886719 6.648438 10.894531 8 10.894531 Z M 8 10.894531"/><path style="stroke:none;fill-rule:nonzero;fill:#242424;fill-opacity:1" d="M 9.300781 8.460938 C 9.101562 8.648438 9.132812 8.964844 9.363281 9.128906 C 9.660156 9.339844 10.089844 9.597656 10.574219 9.730469 C 11.058594 9.863281 11.558594 9.859375 11.921875 9.828125 C 12.207031 9.804688 12.394531 9.546875 12.316406 9.285156 C 12.25 9.074219 12.035156 8.933594 11.804688 8.953125 C 11.53125 8.976562 11.152344 8.980469 10.804688 8.886719 C 10.457031 8.792969 10.136719 8.59375 9.910156 8.433594 C 9.722656 8.296875 9.460938 8.3125 9.300781 8.460938 Z M 9.300781 8.460938"/><path style="stroke:none;fill-rule:nonzero;fill:#242424;fill-opacity:1" d="M 6.699219 8.460938 C 6.898438 8.648438 6.867188 8.964844 6.636719 9.128906 C 6.339844 9.339844 5.910156 9.597656 5.425781 9.730469 C 4.941406 9.863281 4.441406 9.859375 4.078125 9.828125 C 3.792969 9.804688 3.605469 9.546875 3.683594 9.285156 C 3.75 9.074219 3.964844 8.933594 4.195312 8.953125 C 4.46875 8.976562 4.847656 8.980469 5.195312 8.886719 C 5.542969 8.792969 5.863281 8.59375 6.089844 8.433594 C 6.277344 8.296875 6.539062 8.3125 6.699219 8.460938 Z M 6.699219 8.460938"/></g></svg>

<svg xmlns="http://www.w3.org/2000/svg" width="16pt" height="16pt" viewBox="0 0 16 16"><defs><linearGradient id="a" x1="64" x2="64" y1="19.717" y2="107.7" gradientTransform="scale(.125)" gradientUnits="userSpaceOnUse"><stop offset=".566" style="stop-color:#f6a323;stop-opacity:1"/><stop offset=".917" style="stop-color:#fee133;stop-opacity:1"/></linearGradient></defs><path d="M8 14.984C4.508 14.984.75 12.801.75 8 .75 3.2 4.508 1.016 8 1.016c1.934 0 3.727.636 5.047 1.8C14.488 4.09 15.25 5.883 15.25 8c0 2.11-.762 3.895-2.203 5.172C11.723 14.344 9.93 14.984 8 14.984m0 0" style="stroke:none;fill-rule:nonzero;fill:url(#a)"/><path d="M8 1.266c1.875 0 3.61.617 4.879 1.738C14.266 4.23 15 5.957 15 8c0 2.035-.734 3.758-2.121 4.984-1.277 1.13-3.008 1.75-4.879 1.75-1.879 0-3.613-.613-4.879-1.726C1.734 11.789 1 10.058 1 8c0-2.066.734-3.8 2.121-5.02C4.383 1.875 6.117 1.266 8 1.266m0-.5C4.105.766.5 3.266.5 8c0 4.71 3.605 7.234 7.5 7.234s7.5-2.59 7.5-7.234C15.5 3.328 11.895.766 8 .766m0 0" style="stroke:none;fill-rule:nonzero;fill:#eb8f00;fill-opacity:1"/><path d="M8 10.895c1.352 0 2.23.988 2.457 1.445.086.176.09.324.016.39-.055.051-.149.051-.258.004a1 1 0 0 1-.113-.066 3.7 3.7 0 0 0-2.106-.676c-.762 0-1.504.258-2.098.676-.035.027-.074.047-.109.066-.11.047-.207.051-.262-.004-.074-.066-.07-.214.02-.39.223-.453 1.101-1.445 2.453-1.445M9.3 8.46c-.198.188-.167.505.063.669.297.21.727.469 1.211.601.485.133.985.13 1.348.098.285-.023.473-.281.394-.543a.49.49 0 0 0-.511-.332c-.274.024-.653.027-1-.066-.348-.094-.668-.293-.895-.453a.49.49 0 0 0-.61.027M6.7 8.46c.198.188.167.505-.063.669-.297.21-.727.469-1.211.601-.485.133-.985.13-1.348.098-.285-.023-.473-.281-.394-.543a.49.49 0 0 1 .511-.332c.274.024.653.027 1-.066.348-.094.668-.293.895-.453a.49.49 0 0 1 .61.027m0 0" style="stroke:none;fill-rule:nonzero;fill:#242424;fill-opacity:1"/></svg>
